X:54
T: Zriny's Tod
N: A0408
O: Europa, Mitteleuropa, Deutschland
N: Dollerweise (A0374), volksthueml. hier nach Werlin, 1646, S.2946
R: Romanze, Ballade, Lied, Kriegslied
M: 4/4
L: 1/4
K: D
d | d=cBA | G2G
A | B=cdB | A2z
d | d=cBA | G2G
A | B=cdB | A2z
A | AGAB | =c2A
A | AAGG | =F2z
=c | =cccd | =c2A
A | =ccd_B | A2=cA | A=FGE | D3

@@@ Tune index: 367
